src/img/arrow_prev.svg

<svg width="400" height="654.545" xmlns="http://www.w3.org/2000/svg"><g fill="#fff" fill-rule="evenodd"><path d="M275.2 10.2v10.2h-34.4v1.2c0 1.013-.156 1.2-1 1.2h-1v34h-34.4V58c0 1.013-.156 1.2-1 1.2h-1v34h-34v1.2c0 1.067-.133 1.2-1.2 1.2H166v34h-34v1c0 .844-.187 1-1.2 1h-1.2V166h-34v1c0 .844-.187 1-1.2 1h-1.2v34.4h-34v1c0 .844-.187 1-1.2 1h-1.2v34h-34v1.2c0 1.067-.133 1.2-1.2 1.2h-1.2v34H0v106.8h20.4V416h1.2c1.013 0 1.2.156 1.2 1v1h34v34H58c1.067 0 1.2.133 1.2 1.2v1.2h34v34h1.2c1.067 0 1.2.133 1.2 1.2v1.2h34v34h1.2c1.067 0 1.2.133 1.2 1.2v1.2h34v34h1.2c1.067 0 1.2.133 1.2 1.2v1.2h34v34h1c.844 0 1 .187 1 1.2v1.2h34.4v34h1c.844 0 1 .187 1 1.2v1.2h34.4v18h70.4v-18h34v-1.2c0-1.067.133-1.2 1.2-1.2h1.2v-34h18V456.8h-18v-34h-1.2c-1.067 0-1.2-.133-1.2-1.2v-1.2h-34v-34h-1.2c-1.067 0-1.2-.133-1.2-1.2V384h-34v-34H308c-1.067 0-1.2-.133-1.2-1.2v-1.2h-34v-38.4h34V308c0-1.067.133-1.2 1.2-1.2h1.2v-34h34v-1.2c0-1.067.133-1.2 1.2-1.2h1.2v-34h34v-1.2c0-1.067.133-1.2 1.2-1.2h1.2v-34h18V56.8h-18v-34h-1.2c-1.067 0-1.2-.133-1.2-1.2v-1.2h-34V0h-70.4v10.2"/><path d="M275.2 10.2v10.2h-34.4v1.2c0 1.013-.156 1.2-1 1.2h-1v34h-34.4V58c0 1.013-.156 1.2-1 1.2h-1v34h-34v1.2c0 1.067-.133 1.2-1.2 1.2H166v34h-34v1c0 .844-.187 1-1.2 1h-1.2V166h-34v1c0 .844-.187 1-1.2 1h-1.2v34.4h-34v1c0 .844-.187 1-1.2 1h-1.2v34h-34v1.2c0 1.067-.133 1.2-1.2 1.2h-1.2v34H0v106.8h20.4V416h1.2c1.013 0 1.2.156 1.2 1v1h34v34H58c1.067 0 1.2.133 1.2 1.2v1.2h34v34h1.2c1.067 0 1.2.133 1.2 1.2v1.2h34v34h1.2c1.067 0 1.2.133 1.2 1.2v1.2h34v34h1.2c1.067 0 1.2.133 1.2 1.2v1.2h34v34h1c.844 0 1 .187 1 1.2v1.2h34.4v34h1c.844 0 1 .187 1 1.2v1.2h34.4v18h70.4v-18h34v-1.2c0-1.067.133-1.2 1.2-1.2h1.2v-34h18V456.8h-18v-34h-1.2c-1.067 0-1.2-.133-1.2-1.2v-1.2h-34v-34h-1.2c-1.067 0-1.2-.133-1.2-1.2V384h-34v-34H308c-1.067 0-1.2-.133-1.2-1.2v-1.2h-34v-38.4h34V308c0-1.067.133-1.2 1.2-1.2h1.2v-34h34v-1.2c0-1.067.133-1.2 1.2-1.2h1.2v-34h34v-1.2c0-1.067.133-1.2 1.2-1.2h1.2v-34h18V56.8h-18v-34h-1.2c-1.067 0-1.2-.133-1.2-1.2v-1.2h-34V0h-70.4v10.2"/><path d="M275.2 10.2v10.2h-34.4v1.2c0 1.013-.156 1.2-1 1.2h-1v34h-34.4V58c0 1.013-.156 1.2-1 1.2h-1v34h-34v1.2c0 1.067-.133 1.2-1.2 1.2H166v34h-34v1c0 .844-.187 1-1.2 1h-1.2V166h-34v1c0 .844-.187 1-1.2 1h-1.2v34.4h-34v1c0 .844-.187 1-1.2 1h-1.2v34h-34v1.2c0 1.067-.133 1.2-1.2 1.2h-1.2v34H0v106.8h20.4V416h1.2c1.013 0 1.2.156 1.2 1v1h34v34H58c1.067 0 1.2.133 1.2 1.2v1.2h34v34h1.2c1.067 0 1.2.133 1.2 1.2v1.2h34v34h1.2c1.067 0 1.2.133 1.2 1.2v1.2h34v34h1.2c1.067 0 1.2.133 1.2 1.2v1.2h34v34h1c.844 0 1 .187 1 1.2v1.2h34.4v34h1c.844 0 1 .187 1 1.2v1.2h34.4v18h70.4v-18h34v-1.2c0-1.067.133-1.2 1.2-1.2h1.2v-34h18V456.8h-18v-34h-1.2c-1.067 0-1.2-.133-1.2-1.2v-1.2h-34v-34h-1.2c-1.067 0-1.2-.133-1.2-1.2V384h-34v-34H308c-1.067 0-1.2-.133-1.2-1.2v-1.2h-34v-38.4h34V308c0-1.067.133-1.2 1.2-1.2h1.2v-34h34v-1.2c0-1.067.133-1.2 1.2-1.2h1.2v-34h34v-1.2c0-1.067.133-1.2 1.2-1.2h1.2v-34h18V56.8h-18v-34h-1.2c-1.067 0-1.2-.133-1.2-1.2v-1.2h-34V0h-70.4v10.2"/><path d="M275.2 10.2v10.2h-34.4v1.2c0 1.013-.156 1.2-1 1.2h-1v34h-34.4V58c0 1.013-.156 1.2-1 1.2h-1v34h-34v1.2c0 1.067-.133 1.2-1.2 1.2H166v34h-34v1c0 .844-.187 1-1.2 1h-1.2V166h-34v1c0 .844-.187 1-1.2 1h-1.2v34.4h-34v1c0 .844-.187 1-1.2 1h-1.2v34h-34v1.2c0 1.067-.133 1.2-1.2 1.2h-1.2v34H0v106.8h20.4V416h1.2c1.013 0 1.2.156 1.2 1v1h34v34H58c1.067 0 1.2.133 1.2 1.2v1.2h34v34h1.2c1.067 0 1.2.133 1.2 1.2v1.2h34v34h1.2c1.067 0 1.2.133 1.2 1.2v1.2h34v34h1.2c1.067 0 1.2.133 1.2 1.2v1.2h34v34h1c.844 0 1 .187 1 1.2v1.2h34.4v34h1c.844 0 1 .187 1 1.2v1.2h34.4v18h70.4v-18h34v-1.2c0-1.067.133-1.2 1.2-1.2h1.2v-34h18V456.8h-18v-34h-1.2c-1.067 0-1.2-.133-1.2-1.2v-1.2h-34v-34h-1.2c-1.067 0-1.2-.133-1.2-1.2V384h-34v-34H308c-1.067 0-1.2-.133-1.2-1.2v-1.2h-34v-38.4h34V308c0-1.067.133-1.2 1.2-1.2h1.2v-34h34v-1.2c0-1.067.133-1.2 1.2-1.2h1.2v-34h34v-1.2c0-1.067.133-1.2 1.2-1.2h1.2v-34h18V56.8h-18v-34h-1.2c-1.067 0-1.2-.133-1.2-1.2v-1.2h-34V0h-70.4v10.2"/><path d="M275.2 10.2v10.2h-34.4v1.2c0 1.013-.156 1.2-1 1.2h-1v34h-34.4V58c0 1.013-.156 1.2-1 1.2h-1v34h-34v1.2c0 1.067-.133 1.2-1.2 1.2H166v34h-34v1c0 .844-.187 1-1.2 1h-1.2V166h-34v1c0 .844-.187 1-1.2 1h-1.2v34.4h-34v1c0 .844-.187 1-1.2 1h-1.2v34h-34v1.2c0 1.067-.133 1.2-1.2 1.2h-1.2v34H0v106.8h20.4V416h1.2c1.013 0 1.2.156 1.2 1v1h34v34H58c1.067 0 1.2.133 1.2 1.2v1.2h34v34h1.2c1.067 0 1.2.133 1.2 1.2v1.2h34v34h1.2c1.067 0 1.2.133 1.2 1.2v1.2h34v34h1.2c1.067 0 1.2.133 1.2 1.2v1.2h34v34h1c.844 0 1 .187 1 1.2v1.2h34.4v34h1c.844 0 1 .187 1 1.2v1.2h34.4v18h70.4v-18h34v-1.2c0-1.067.133-1.2 1.2-1.2h1.2v-34h18V456.8h-18v-34h-1.2c-1.067 0-1.2-.133-1.2-1.2v-1.2h-34v-34h-1.2c-1.067 0-1.2-.133-1.2-1.2V384h-34v-34H308c-1.067 0-1.2-.133-1.2-1.2v-1.2h-34v-38.4h34V308c0-1.067.133-1.2 1.2-1.2h1.2v-34h34v-1.2c0-1.067.133-1.2 1.2-1.2h1.2v-34h34v-1.2c0-1.067.133-1.2 1.2-1.2h1.2v-34h18V56.8h-18v-34h-1.2c-1.067 0-1.2-.133-1.2-1.2v-1.2h-34V0h-70.4v10.2"/></g></svg>

<svg id="svg" version="1.1" width="400" height="654.5454545454545" viewBox="0 0 400 654.5454545454545" xmlns="http://www.w3.org/2000/svg" xmlns:xlink="http://www.w3.org/1999/xlink" ><g id="svgg"><path id="path0" d="M275.200 10.200 L 275.200 20.400 258.000 20.400 L 240.800 20.400 240.800 21.600 C 240.800 22.613,240.644 22.800,239.800 22.800 L 238.800 22.800 238.800 39.800 L 238.800 56.800 221.600 56.800 L 204.400 56.800 204.400 58.000 C 204.400 59.013,204.244 59.200,203.400 59.200 L 202.400 59.200 202.400 76.200 L 202.400 93.200 185.400 93.200 L 168.400 93.200 168.400 94.400 C 168.400 95.467,168.267 95.600,167.200 95.600 L 166.000 95.600 166.000 112.600 L 166.000 129.600 149.000 129.600 L 132.000 129.600 132.000 130.600 C 132.000 131.444,131.813 131.600,130.800 131.600 L 129.600 131.600 129.600 148.800 L 129.600 166.000 112.600 166.000 L 95.600 166.000 95.600 167.000 C 95.600 167.844,95.413 168.000,94.400 168.000 L 93.200 168.000 93.200 185.200 L 93.200 202.400 76.200 202.400 L 59.200 202.400 59.200 203.400 C 59.200 204.244,59.013 204.400,58.000 204.400 L 56.800 204.400 56.800 221.400 L 56.800 238.400 39.800 238.400 L 22.800 238.400 22.800 239.600 C 22.800 240.667,22.667 240.800,21.600 240.800 L 20.400 240.800 20.400 257.800 L 20.400 274.800 10.200 274.800 L 0.000 274.800 0.000 328.200 L 0.000 381.600 10.200 381.600 L 20.400 381.600 20.400 398.800 L 20.400 416.000 21.600 416.000 C 22.613 416.000,22.800 416.156,22.800 417.000 L 22.800 418.000 39.800 418.000 L 56.800 418.000 56.800 435.000 L 56.800 452.000 58.000 452.000 C 59.067 452.000,59.200 452.133,59.200 453.200 L 59.200 454.400 76.200 454.400 L 93.200 454.400 93.200 471.400 L 93.200 488.400 94.400 488.400 C 95.467 488.400,95.600 488.533,95.600 489.600 L 95.600 490.800 112.600 490.800 L 129.600 490.800 129.600 507.800 L 129.600 524.800 130.800 524.800 C 131.867 524.800,132.000 524.933,132.000 526.000 L 132.000 527.200 149.000 527.200 L 166.000 527.200 166.000 544.200 L 166.000 561.200 167.200 561.200 C 168.267 561.200,168.400 561.333,168.400 562.400 L 168.400 563.600 185.400 563.600 L 202.400 563.600 202.400 580.600 L 202.400 597.600 203.400 597.600 C 204.244 597.600,204.400 597.787,204.400 598.800 L 204.400 600.000 221.600 600.000 L 238.800 600.000 238.800 617.000 L 238.800 634.000 239.800 634.000 C 240.644 634.000,240.800 634.187,240.800 635.200 L 240.800 636.400 258.000 636.400 L 275.200 636.400 275.200 645.400 L 275.200 654.400 310.400 654.400 L 345.600 654.400 345.600 645.400 L 345.600 636.400 362.600 636.400 L 379.600 636.400 379.600 635.200 C 379.600 634.133,379.733 634.000,380.800 634.000 L 382.000 634.000 382.000 617.000 L 382.000 600.000 391.000 600.000 L 400.000 600.000 400.000 528.400 L 400.000 456.800 391.000 456.800 L 382.000 456.800 382.000 439.800 L 382.000 422.800 380.800 422.800 C 379.733 422.800,379.600 422.667,379.600 421.600 L 379.600 420.400 362.600 420.400 L 345.600 420.400 345.600 403.400 L 345.600 386.400 344.400 386.400 C 343.333 386.400,343.200 386.267,343.200 385.200 L 343.200 384.000 326.200 384.000 L 309.200 384.000 309.200 367.000 L 309.200 350.000 308.000 350.000 C 306.933 350.000,306.800 349.867,306.800 348.800 L 306.800 347.600 289.800 347.600 L 272.800 347.600 272.800 328.400 L 272.800 309.200 289.800 309.200 L 306.800 309.200 306.800 308.000 C 306.800 306.933,306.933 306.800,308.000 306.800 L 309.200 306.800 309.200 289.800 L 309.200 272.800 326.200 272.800 L 343.200 272.800 343.200 271.600 C 343.200 270.533,343.333 270.400,344.400 270.400 L 345.600 270.400 345.600 253.400 L 345.600 236.400 362.600 236.400 L 379.600 236.400 379.600 235.200 C 379.600 234.133,379.733 234.000,380.800 234.000 L 382.000 234.000 382.000 217.000 L 382.000 200.000 391.000 200.000 L 400.000 200.000 400.000 128.400 L 400.000 56.800 391.000 56.800 L 382.000 56.800 382.000 39.800 L 382.000 22.800 380.800 22.800 C 379.733 22.800,379.600 22.667,379.600 21.600 L 379.600 20.400 362.600 20.400 L 345.600 20.400 345.600 10.200 L 345.600 0.000 310.400 0.000 L 275.200 0.000 275.200 10.200 " stroke="none" fill="#ffffff" fill-rule="evenodd"></path><path id="path1" d="M275.200 10.200 L 275.200 20.400 258.000 20.400 L 240.800 20.400 240.800 21.600 C 240.800 22.613,240.644 22.800,239.800 22.800 L 238.800 22.800 238.800 39.800 L 238.800 56.800 221.600 56.800 L 204.400 56.800 204.400 58.000 C 204.400 59.013,204.244 59.200,203.400 59.200 L 202.400 59.200 202.400 76.200 L 202.400 93.200 185.400 93.200 L 168.400 93.200 168.400 94.400 C 168.400 95.467,168.267 95.600,167.200 95.600 L 166.000 95.600 166.000 112.600 L 166.000 129.600 149.000 129.600 L 132.000 129.600 132.000 130.600 C 132.000 131.444,131.813 131.600,130.800 131.600 L 129.600 131.600 129.600 148.800 L 129.600 166.000 112.600 166.000 L 95.600 166.000 95.600 167.000 C 95.600 167.844,95.413 168.000,94.400 168.000 L 93.200 168.000 93.200 185.200 L 93.200 202.400 76.200 202.400 L 59.200 202.400 59.200 203.400 C 59.200 204.244,59.013 204.400,58.000 204.400 L 56.800 204.400 56.800 221.400 L 56.800 238.400 39.800 238.400 L 22.800 238.400 22.800 239.600 C 22.800 240.667,22.667 240.800,21.600 240.800 L 20.400 240.800 20.400 257.800 L 20.400 274.800 10.200 274.800 L 0.000 274.800 0.000 328.200 L 0.000 381.600 10.200 381.600 L 20.400 381.600 20.400 398.800 L 20.400 416.000 21.600 416.000 C 22.613 416.000,22.800 416.156,22.800 417.000 L 22.800 418.000 39.800 418.000 L 56.800 418.000 56.800 435.000 L 56.800 452.000 58.000 452.000 C 59.067 452.000,59.200 452.133,59.200 453.200 L 59.200 454.400 76.200 454.400 L 93.200 454.400 93.200 471.400 L 93.200 488.400 94.400 488.400 C 95.467 488.400,95.600 488.533,95.600 489.600 L 95.600 490.800 112.600 490.800 L 129.600 490.800 129.600 507.800 L 129.600 524.800 130.800 524.800 C 131.867 524.800,132.000 524.933,132.000 526.000 L 132.000 527.200 149.000 527.200 L 166.000 527.200 166.000 544.200 L 166.000 561.200 167.200 561.200 C 168.267 561.200,168.400 561.333,168.400 562.400 L 168.400 563.600 185.400 563.600 L 202.400 563.600 202.400 580.600 L 202.400 597.600 203.400 597.600 C 204.244 597.600,204.400 597.787,204.400 598.800 L 204.400 600.000 221.600 600.000 L 238.800 600.000 238.800 617.000 L 238.800 634.000 239.800 634.000 C 240.644 634.000,240.800 634.187,240.800 635.200 L 240.800 636.400 258.000 636.400 L 275.200 636.400 275.200 645.400 L 275.200 654.400 310.400 654.400 L 345.600 654.400 345.600 645.400 L 345.600 636.400 362.600 636.400 L 379.600 636.400 379.600 635.200 C 379.600 634.133,379.733 634.000,380.800 634.000 L 382.000 634.000 382.000 617.000 L 382.000 600.000 391.000 600.000 L 400.000 600.000 400.000 528.400 L 400.000 456.800 391.000 456.800 L 382.000 456.800 382.000 439.800 L 382.000 422.800 380.800 422.800 C 379.733 422.800,379.600 422.667,379.600 421.600 L 379.600 420.400 362.600 420.400 L 345.600 420.400 345.600 403.400 L 345.600 386.400 344.400 386.400 C 343.333 386.400,343.200 386.267,343.200 385.200 L 343.200 384.000 326.200 384.000 L 309.200 384.000 309.200 367.000 L 309.200 350.000 308.000 350.000 C 306.933 350.000,306.800 349.867,306.800 348.800 L 306.800 347.600 289.800 347.600 L 272.800 347.600 272.800 328.400 L 272.800 309.200 289.800 309.200 L 306.800 309.200 306.800 308.000 C 306.800 306.933,306.933 306.800,308.000 306.800 L 309.200 306.800 309.200 289.800 L 309.200 272.800 326.200 272.800 L 343.200 272.800 343.200 271.600 C 343.200 270.533,343.333 270.400,344.400 270.400 L 345.600 270.400 345.600 253.400 L 345.600 236.400 362.600 236.400 L 379.600 236.400 379.600 235.200 C 379.600 234.133,379.733 234.000,380.800 234.000 L 382.000 234.000 382.000 217.000 L 382.000 200.000 391.000 200.000 L 400.000 200.000 400.000 128.400 L 400.000 56.800 391.000 56.800 L 382.000 56.800 382.000 39.800 L 382.000 22.800 380.800 22.800 C 379.733 22.800,379.600 22.667,379.600 21.600 L 379.600 20.400 362.600 20.400 L 345.600 20.400 345.600 10.200 L 345.600 0.000 310.400 0.000 L 275.200 0.000 275.200 10.200 " stroke="none" fill="#ffffff" fill-rule="evenodd"></path><path id="path2" d="M275.200 10.200 L 275.200 20.400 258.000 20.400 L 240.800 20.400 240.800 21.600 C 240.800 22.613,240.644 22.800,239.800 22.800 L 238.800 22.800 238.800 39.800 L 238.800 56.800 221.600 56.800 L 204.400 56.800 204.400 58.000 C 204.400 59.013,204.244 59.200,203.400 59.200 L 202.400 59.200 202.400 76.200 L 202.400 93.200 185.400 93.200 L 168.400 93.200 168.400 94.400 C 168.400 95.467,168.267 95.600,167.200 95.600 L 166.000 95.600 166.000 112.600 L 166.000 129.600 149.000 129.600 L 132.000 129.600 132.000 130.600 C 132.000 131.444,131.813 131.600,130.800 131.600 L 129.600 131.600 129.600 148.800 L 129.600 166.000 112.600 166.000 L 95.600 166.000 95.600 167.000 C 95.600 167.844,95.413 168.000,94.400 168.000 L 93.200 168.000 93.200 185.200 L 93.200 202.400 76.200 202.400 L 59.200 202.400 59.200 203.400 C 59.200 204.244,59.013 204.400,58.000 204.400 L 56.800 204.400 56.800 221.400 L 56.800 238.400 39.800 238.400 L 22.800 238.400 22.800 239.600 C 22.800 240.667,22.667 240.800,21.600 240.800 L 20.400 240.800 20.400 257.800 L 20.400 274.800 10.200 274.800 L 0.000 274.800 0.000 328.200 L 0.000 381.600 10.200 381.600 L 20.400 381.600 20.400 398.800 L 20.400 416.000 21.600 416.000 C 22.613 416.000,22.800 416.156,22.800 417.000 L 22.800 418.000 39.800 418.000 L 56.800 418.000 56.800 435.000 L 56.800 452.000 58.000 452.000 C 59.067 452.000,59.200 452.133,59.200 453.200 L 59.200 454.400 76.200 454.400 L 93.200 454.400 93.200 471.400 L 93.200 488.400 94.400 488.400 C 95.467 488.400,95.600 488.533,95.600 489.600 L 95.600 490.800 112.600 490.800 L 129.600 490.800 129.600 507.800 L 129.600 524.800 130.800 524.800 C 131.867 524.800,132.000 524.933,132.000 526.000 L 132.000 527.200 149.000 527.200 L 166.000 527.200 166.000 544.200 L 166.000 561.200 167.200 561.200 C 168.267 561.200,168.400 561.333,168.400 562.400 L 168.400 563.600 185.400 563.600 L 202.400 563.600 202.400 580.600 L 202.400 597.600 203.400 597.600 C 204.244 597.600,204.400 597.787,204.400 598.800 L 204.400 600.000 221.600 600.000 L 238.800 600.000 238.800 617.000 L 238.800 634.000 239.800 634.000 C 240.644 634.000,240.800 634.187,240.800 635.200 L 240.800 636.400 258.000 636.400 L 275.200 636.400 275.200 645.400 L 275.200 654.400 310.400 654.400 L 345.600 654.400 345.600 645.400 L 345.600 636.400 362.600 636.400 L 379.600 636.400 379.600 635.200 C 379.600 634.133,379.733 634.000,380.800 634.000 L 382.000 634.000 382.000 617.000 L 382.000 600.000 391.000 600.000 L 400.000 600.000 400.000 528.400 L 400.000 456.800 391.000 456.800 L 382.000 456.800 382.000 439.800 L 382.000 422.800 380.800 422.800 C 379.733 422.800,379.600 422.667,379.600 421.600 L 379.600 420.400 362.600 420.400 L 345.600 420.400 345.600 403.400 L 345.600 386.400 344.400 386.400 C 343.333 386.400,343.200 386.267,343.200 385.200 L 343.200 384.000 326.200 384.000 L 309.200 384.000 309.200 367.000 L 309.200 350.000 308.000 350.000 C 306.933 350.000,306.800 349.867,306.800 348.800 L 306.800 347.600 289.800 347.600 L 272.800 347.600 272.800 328.400 L 272.800 309.200 289.800 309.200 L 306.800 309.200 306.800 308.000 C 306.800 306.933,306.933 306.800,308.000 306.800 L 309.200 306.800 309.200 289.800 L 309.200 272.800 326.200 272.800 L 343.200 272.800 343.200 271.600 C 343.200 270.533,343.333 270.400,344.400 270.400 L 345.600 270.400 345.600 253.400 L 345.600 236.400 362.600 236.400 L 379.600 236.400 379.600 235.200 C 379.600 234.133,379.733 234.000,380.800 234.000 L 382.000 234.000 382.000 217.000 L 382.000 200.000 391.000 200.000 L 400.000 200.000 400.000 128.400 L 400.000 56.800 391.000 56.800 L 382.000 56.800 382.000 39.800 L 382.000 22.800 380.800 22.800 C 379.733 22.800,379.600 22.667,379.600 21.600 L 379.600 20.400 362.600 20.400 L 345.600 20.400 345.600 10.200 L 345.600 0.000 310.400 0.000 L 275.200 0.000 275.200 10.200 " stroke="none" fill="#ffffff" fill-rule="evenodd"></path><path id="path3" d="M275.200 10.200 L 275.200 20.400 258.000 20.400 L 240.800 20.400 240.800 21.600 C 240.800 22.613,240.644 22.800,239.800 22.800 L 238.800 22.800 238.800 39.800 L 238.800 56.800 221.600 56.800 L 204.400 56.800 204.400 58.000 C 204.400 59.013,204.244 59.200,203.400 59.200 L 202.400 59.200 202.400 76.200 L 202.400 93.200 185.400 93.200 L 168.400 93.200 168.400 94.400 C 168.400 95.467,168.267 95.600,167.200 95.600 L 166.000 95.600 166.000 112.600 L 166.000 129.600 149.000 129.600 L 132.000 129.600 132.000 130.600 C 132.000 131.444,131.813 131.600,130.800 131.600 L 129.600 131.600 129.600 148.800 L 129.600 166.000 112.600 166.000 L 95.600 166.000 95.600 167.000 C 95.600 167.844,95.413 168.000,94.400 168.000 L 93.200 168.000 93.200 185.200 L 93.200 202.400 76.200 202.400 L 59.200 202.400 59.200 203.400 C 59.200 204.244,59.013 204.400,58.000 204.400 L 56.800 204.400 56.800 221.400 L 56.800 238.400 39.800 238.400 L 22.800 238.400 22.800 239.600 C 22.800 240.667,22.667 240.800,21.600 240.800 L 20.400 240.800 20.400 257.800 L 20.400 274.800 10.200 274.800 L 0.000 274.800 0.000 328.200 L 0.000 381.600 10.200 381.600 L 20.400 381.600 20.400 398.800 L 20.400 416.000 21.600 416.000 C 22.613 416.000,22.800 416.156,22.800 417.000 L 22.800 418.000 39.800 418.000 L 56.800 418.000 56.800 435.000 L 56.800 452.000 58.000 452.000 C 59.067 452.000,59.200 452.133,59.200 453.200 L 59.200 454.400 76.200 454.400 L 93.200 454.400 93.200 471.400 L 93.200 488.400 94.400 488.400 C 95.467 488.400,95.600 488.533,95.600 489.600 L 95.600 490.800 112.600 490.800 L 129.600 490.800 129.600 507.800 L 129.600 524.800 130.800 524.800 C 131.867 524.800,132.000 524.933,132.000 526.000 L 132.000 527.200 149.000 527.200 L 166.000 527.200 166.000 544.200 L 166.000 561.200 167.200 561.200 C 168.267 561.200,168.400 561.333,168.400 562.400 L 168.400 563.600 185.400 563.600 L 202.400 563.600 202.400 580.600 L 202.400 597.600 203.400 597.600 C 204.244 597.600,204.400 597.787,204.400 598.800 L 204.400 600.000 221.600 600.000 L 238.800 600.000 238.800 617.000 L 238.800 634.000 239.800 634.000 C 240.644 634.000,240.800 634.187,240.800 635.200 L 240.800 636.400 258.000 636.400 L 275.200 636.400 275.200 645.400 L 275.200 654.400 310.400 654.400 L 345.600 654.400 345.600 645.400 L 345.600 636.400 362.600 636.400 L 379.600 636.400 379.600 635.200 C 379.600 634.133,379.733 634.000,380.800 634.000 L 382.000 634.000 382.000 617.000 L 382.000 600.000 391.000 600.000 L 400.000 600.000 400.000 528.400 L 400.000 456.800 391.000 456.800 L 382.000 456.800 382.000 439.800 L 382.000 422.800 380.800 422.800 C 379.733 422.800,379.600 422.667,379.600 421.600 L 379.600 420.400 362.600 420.400 L 345.600 420.400 345.600 403.400 L 345.600 386.400 344.400 386.400 C 343.333 386.400,343.200 386.267,343.200 385.200 L 343.200 384.000 326.200 384.000 L 309.200 384.000 309.200 367.000 L 309.200 350.000 308.000 350.000 C 306.933 350.000,306.800 349.867,306.800 348.800 L 306.800 347.600 289.800 347.600 L 272.800 347.600 272.800 328.400 L 272.800 309.200 289.800 309.200 L 306.800 309.200 306.800 308.000 C 306.800 306.933,306.933 306.800,308.000 306.800 L 309.200 306.800 309.200 289.800 L 309.200 272.800 326.200 272.800 L 343.200 272.800 343.200 271.600 C 343.200 270.533,343.333 270.400,344.400 270.400 L 345.600 270.400 345.600 253.400 L 345.600 236.400 362.600 236.400 L 379.600 236.400 379.600 235.200 C 379.600 234.133,379.733 234.000,380.800 234.000 L 382.000 234.000 382.000 217.000 L 382.000 200.000 391.000 200.000 L 400.000 200.000 400.000 128.400 L 400.000 56.800 391.000 56.800 L 382.000 56.800 382.000 39.800 L 382.000 22.800 380.800 22.800 C 379.733 22.800,379.600 22.667,379.600 21.600 L 379.600 20.400 362.600 20.400 L 345.600 20.400 345.600 10.200 L 345.600 0.000 310.400 0.000 L 275.200 0.000 275.200 10.200 " stroke="none" fill="#ffffff" fill-rule="evenodd"></path><path id="path4" d="M275.200 10.200 L 275.200 20.400 258.000 20.400 L 240.800 20.400 240.800 21.600 C 240.800 22.613,240.644 22.800,239.800 22.800 L 238.800 22.800 238.800 39.800 L 238.800 56.800 221.600 56.800 L 204.400 56.800 204.400 58.000 C 204.400 59.013,204.244 59.200,203.400 59.200 L 202.400 59.200 202.400 76.200 L 202.400 93.200 185.400 93.200 L 168.400 93.200 168.400 94.400 C 168.400 95.467,168.267 95.600,167.200 95.600 L 166.000 95.600 166.000 112.600 L 166.000 129.600 149.000 129.600 L 132.000 129.600 132.000 130.600 C 132.000 131.444,131.813 131.600,130.800 131.600 L 129.600 131.600 129.600 148.800 L 129.600 166.000 112.600 166.000 L 95.600 166.000 95.600 167.000 C 95.600 167.844,95.413 168.000,94.400 168.000 L 93.200 168.000 93.200 185.200 L 93.200 202.400 76.200 202.400 L 59.200 202.400 59.200 203.400 C 59.200 204.244,59.013 204.400,58.000 204.400 L 56.800 204.400 56.800 221.400 L 56.800 238.400 39.800 238.400 L 22.800 238.400 22.800 239.600 C 22.800 240.667,22.667 240.800,21.600 240.800 L 20.400 240.800 20.400 257.800 L 20.400 274.800 10.200 274.800 L 0.000 274.800 0.000 328.200 L 0.000 381.600 10.200 381.600 L 20.400 381.600 20.400 398.800 L 20.400 416.000 21.600 416.000 C 22.613 416.000,22.800 416.156,22.800 417.000 L 22.800 418.000 39.800 418.000 L 56.800 418.000 56.800 435.000 L 56.800 452.000 58.000 452.000 C 59.067 452.000,59.200 452.133,59.200 453.200 L 59.200 454.400 76.200 454.400 L 93.200 454.400 93.200 471.400 L 93.200 488.400 94.400 488.400 C 95.467 488.400,95.600 488.533,95.600 489.600 L 95.600 490.800 112.600 490.800 L 129.600 490.800 129.600 507.800 L 129.600 524.800 130.800 524.800 C 131.867 524.800,132.000 524.933,132.000 526.000 L 132.000 527.200 149.000 527.200 L 166.000 527.200 166.000 544.200 L 166.000 561.200 167.200 561.200 C 168.267 561.200,168.400 561.333,168.400 562.400 L 168.400 563.600 185.400 563.600 L 202.400 563.600 202.400 580.600 L 202.400 597.600 203.400 597.600 C 204.244 597.600,204.400 597.787,204.400 598.800 L 204.400 600.000 221.600 600.000 L 238.800 600.000 238.800 617.000 L 238.800 634.000 239.800 634.000 C 240.644 634.000,240.800 634.187,240.800 635.200 L 240.800 636.400 258.000 636.400 L 275.200 636.400 275.200 645.400 L 275.200 654.400 310.400 654.400 L 345.600 654.400 345.600 645.400 L 345.600 636.400 362.600 636.400 L 379.600 636.400 379.600 635.200 C 379.600 634.133,379.733 634.000,380.800 634.000 L 382.000 634.000 382.000 617.000 L 382.000 600.000 391.000 600.000 L 400.000 600.000 400.000 528.400 L 400.000 456.800 391.000 456.800 L 382.000 456.800 382.000 439.800 L 382.000 422.800 380.800 422.800 C 379.733 422.800,379.600 422.667,379.600 421.600 L 379.600 420.400 362.600 420.400 L 345.600 420.400 345.600 403.400 L 345.600 386.400 344.400 386.400 C 343.333 386.400,343.200 386.267,343.200 385.200 L 343.200 384.000 326.200 384.000 L 309.200 384.000 309.200 367.000 L 309.200 350.000 308.000 350.000 C 306.933 350.000,306.800 349.867,306.800 348.800 L 306.800 347.600 289.800 347.600 L 272.800 347.600 272.800 328.400 L 272.800 309.200 289.800 309.200 L 306.800 309.200 306.800 308.000 C 306.800 306.933,306.933 306.800,308.000 306.800 L 309.200 306.800 309.200 289.800 L 309.200 272.800 326.200 272.800 L 343.200 272.800 343.200 271.600 C 343.200 270.533,343.333 270.400,344.400 270.400 L 345.600 270.400 345.600 253.400 L 345.600 236.400 362.600 236.400 L 379.600 236.400 379.600 235.200 C 379.600 234.133,379.733 234.000,380.800 234.000 L 382.000 234.000 382.000 217.000 L 382.000 200.000 391.000 200.000 L 400.000 200.000 400.000 128.400 L 400.000 56.800 391.000 56.800 L 382.000 56.800 382.000 39.800 L 382.000 22.800 380.800 22.800 C 379.733 22.800,379.600 22.667,379.600 21.600 L 379.600 20.400 362.600 20.400 L 345.600 20.400 345.600 10.200 L 345.600 0.000 310.400 0.000 L 275.200 0.000 275.200 10.200 " stroke="none" fill="#ffffff" fill-rule="evenodd"></path></g></svg>
